src/assets/icons/Matrix/Rotador/matrix9_q.svg

<?xml version="1.0" encoding="UTF-8"?>
<svg id="Capa_2" data-name="Capa 2" xmlns="http://www.w3.org/2000/svg" viewBox="0 0 38.75 1.67">
  <defs>
    <style>
      .cls-1 {
        fill: none;
        stroke: #000;
        stroke-linecap: round;
        stroke-linejoin: round;
        stroke-width: .05px;
      }
    </style>
  </defs>
  <g id="Capa_1-2" data-name="Capa 1">
    <g>
      <polyline class="cls-1" points="19.55 .93 19.55 1.05 19.58 1.08 19.61 1.08 20.45 1.08 20.48 1.08 20.48 1.1 20.48 1.13 20.48 1.32 20.48 1.35 20.48 1.38 20.45 1.41 20.42 1.44 20.39 1.44 20.36 1.44"/>
      <polyline class="cls-1" points="19.25 .81 19.25 .9 19.25 .93 19.41 1.22 19.44 1.22 19.44 1.25 19.47 1.25 20.25 1.25 20.25 1.32 20.28 1.35 20.28 1.38 20.28 1.41 20.3 1.41 20.3 1.44 20.33 1.44 20.36 1.44"/>
      <polyline class="cls-1" points="18.05 1.05 17.06 1.05 17.03 1.05 17.03 1.02 17.03 .87"/>
      <polyline class="cls-1" points="16.01 1.05 15.03 1.05 15 1.05 15 1.02 15 .87"/>
      <polyline class="cls-1" points="13.97 1.05 13.01 1.05 12.98 1.05 12.95 1.05 12.95 1.02 12.95 .87"/>
      <polyline class="cls-1" points="11.97 1.05 10.7 1.05 10.67 1.05 10.67 1.08 10.64 1.08 10.64 1.1 10.64 1.28 10.64 1.32 10.64 1.35 10.67 1.35 10.7 1.35 10.85 1.35 10.88 1.35 10.91 1.38 10.91 1.41 10.91 1.59 10.91 1.62 10.88 1.65 10.85 1.65 10.19 1.65 10.16 1.65 10.13 1.62 10.13 1.59 10.13 1.41 10.13 1.38 10.16 1.35 10.19 1.35 10.41 1.35 10.44 1.35 10.47 1.35 10.47 1.32 10.47 1.28 10.47 1.1 10.47 1.08 10.44 1.08 10.44 1.05 10.41 1.05 2.75 1.05 2.54 1.05 2.51 1.08 2.51 1.1 2.48 1.1 2.48 1.59 2.48 1.62 2.48 1.65 2.45 1.65 2.33 1.65 .05 1.65 .03 1.65 .03 1.62 .03 1.59 .03 1.53 .03 1.5 .03 1.47 .05 1.47 .23 1.47 .56 1.47 .59 1.5 .59 1.47 2.28 1.47 2.3 1.47 2.3 1.44 2.33 1.44 2.33 1.41 2.33 1.1 2.3 1.08 2.28 1.05 1.44 1.05 1.41 1.05 1.41 1.02 1.41 .93 1.41 .9 1.44 .9 1.44 .87 1.82 .87 11.3 .87 11.97 .87"/>
      <line class="cls-1" x1="13.34" y1=".87" x2="13.97" y2=".87"/>
      <line class="cls-1" x1="15.38" y1=".87" x2="16.01" y2=".87"/>
      <line class="cls-1" x1="17.39" y1=".87" x2="18.05" y2=".87"/>
      <path class="cls-1" d="m19.41.84c.14-.16.16-.38.05-.57s-.31-.28-.51-.24c-.21.04-.37.2-.4.4"/>
      <path class="cls-1" d="m19.23.76c.11-.09.15-.24.09-.37-.05-.13-.19-.21-.33-.19-.14.02-.25.12-.28.26"/>
      <path class="cls-1" d="m18.04.84c.24,0,.45-.17.49-.41"/>
      <path class="cls-1" d="m18.04,1.02c.33,0,.61-.23.66-.56"/>
      <path class="cls-1" d="m19.53.91s-.02-.04-.05-.04"/>
      <line class="cls-1" x1="19.44" y1=".87" x2="19.5" y2=".87"/>
      <path class="cls-1" d="m17.37.84c.14-.16.16-.38.05-.57-.1-.18-.31-.28-.51-.24-.21.04-.37.2-.4.4"/>
      <path class="cls-1" d="m17,.83c.17,0,.3-.14.31-.3s-.12-.31-.28-.33-.32.09-.34.26"/>
      <path class="cls-1" d="m16,.84c.24,0,.45-.17.49-.41"/>
      <path class="cls-1" d="m16,1.02c.33,0,.61-.23.66-.56"/>
      <path class="cls-1" d="m15.36.84c.14-.16.16-.38.05-.57s-.31-.28-.51-.24c-.21.04-.37.2-.4.4"/>
      <path class="cls-1" d="m14.99.83c.17,0,.3-.14.31-.3s-.12-.31-.28-.33-.32.09-.34.26"/>
      <path class="cls-1" d="m13.96.84c.24,0,.45-.17.49-.41"/>
      <path class="cls-1" d="m13.96,1.02c.33,0,.61-.23.66-.56"/>
      <path class="cls-1" d="m13.32.84c.14-.16.16-.38.05-.57s-.31-.28-.51-.24c-.21.04-.37.2-.4.4"/>
      <path class="cls-1" d="m12.95.83c.17,0,.3-.14.31-.3,0-.17-.12-.31-.28-.33s-.32.09-.34.26"/>
      <path class="cls-1" d="m11.95.84c.24,0,.45-.17.49-.41"/>
      <path class="cls-1" d="m11.95,1.02c.33,0,.61-.23.66-.56"/>
      <polyline class="cls-1" points="37.76 .93 37.76 1.05 37.79 1.05 37.79 1.08 37.82 1.08 38.66 1.08 38.69 1.08 38.69 1.1 38.72 1.1 38.72 1.13 38.72 1.32 38.72 1.35 38.69 1.38 38.69 1.41 38.66 1.41 38.66 1.44 38.63 1.44 38.6 1.44"/>
      <polyline class="cls-1" points="37.47 .81 37.47 .9 37.5 .93 37.64 1.22 37.64 1.25 37.67 1.25 38.48 1.25 38.48 1.32 38.48 1.35 38.48 1.38 38.51 1.41 38.54 1.44 38.57 1.44 38.6 1.44"/>
      <polyline class="cls-1" points="36.26 1.05 35.3 1.05 35.28 1.05 35.25 1.05 35.25 1.02 35.25 .87"/>
      <polyline class="cls-1" points="34.22 1.05 33.26 1.05 33.23 1.05 33.2 1.05 33.2 1.02 33.2 .87"/>
      <polyline class="cls-1" points="32.22 1.05 31.22 1.05 31.19 1.05 31.19 1.02 31.16 1.02 31.16 .87"/>
      <polyline class="cls-1" points="30.17 1.05 28.91 1.05 28.88 1.05 28.88 1.08 28.85 1.08 28.85 1.1 28.85 1.28 28.85 1.32 28.88 1.32 28.88 1.35 28.91 1.35 29.09 1.35 29.12 1.35 29.12 1.38 29.12 1.41 29.12 1.59 29.12 1.62 29.12 1.65 29.09 1.65 28.41 1.65 28.37 1.65 28.37 1.62 28.34 1.62 28.34 1.59 28.34 1.41 28.34 1.38 28.37 1.38 28.37 1.35 28.41 1.35 28.64 1.35 28.67 1.35 28.67 1.32 28.67 1.28 28.67 1.1 28.67 1.08 28.64 1.05 20.97 1.05 20.75 1.05 20.75 1.08 20.72 1.08 20.72 1.1 20.72 1.59 20.72 1.62 20.69 1.62 20.69 1.65 20.66 1.65 20.54 1.65 18.29 1.65 18.26 1.65 18.23 1.62 18.23 1.59 18.23 1.53 18.23 1.5 18.26 1.47 18.29 1.47 18.44 1.47 18.78 1.47 18.8 1.5 18.83 1.47 20.48 1.47 20.51 1.47 20.51 1.44 20.54 1.44 20.54 1.41 20.54 1.1 20.54 1.08 20.51 1.08 20.51 1.05 20.48 1.05 19.67 1.05 19.64 1.05 19.61 1.05 19.61 1.02 19.61 .93 19.61 .9 19.64 .9 19.64 .87 19.67 .87 20.03 .87 29.51 .87 30.17 .87"/>
      <line class="cls-1" x1="31.55" y1=".87" x2="32.22" y2=".87"/>
      <line class="cls-1" x1="33.59" y1=".87" x2="34.22" y2=".87"/>
      <line class="cls-1" x1="35.63" y1=".87" x2="36.26" y2=".87"/>
      <path class="cls-1" d="m37.62.84c.14-.16.16-.38.05-.57-.1-.18-.31-.28-.51-.24-.21.04-.37.2-.4.4"/>
      <path class="cls-1" d="m37.44.76c.11-.09.15-.24.09-.37-.05-.13-.19-.21-.33-.19-.14.02-.25.12-.28.26"/>
      <path class="cls-1" d="m36.25.84c.24,0,.45-.17.49-.41"/>
      <path class="cls-1" d="m36.25,1.02c.33,0,.61-.23.66-.56"/>
      <path class="cls-1" d="m37.76.91s-.02-.04-.05-.04"/>
      <line class="cls-1" x1="37.64" y1=".87" x2="37.73" y2=".87"/>
      <path class="cls-1" d="m35.61.84c.14-.16.16-.38.05-.57s-.31-.28-.51-.24c-.21.04-.37.2-.4.4"/>
      <path class="cls-1" d="m35.24.83c.17,0,.3-.14.31-.3s-.12-.31-.28-.33-.32.09-.34.26"/>
      <path class="cls-1" d="m34.21.84c.24,0,.45-.17.49-.41"/>
      <path class="cls-1" d="m34.21,1.02c.33,0,.61-.23.66-.56"/>
      <path class="cls-1" d="m33.57.84c.14-.16.16-.38.05-.57s-.31-.28-.51-.24c-.21.04-.37.2-.4.4"/>
      <path class="cls-1" d="m33.2.83c.17,0,.3-.14.31-.3,0-.17-.12-.31-.28-.33s-.32.09-.34.26"/>
      <path class="cls-1" d="m32.2.84c.24,0,.45-.17.49-.41"/>
      <path class="cls-1" d="m32.2,1.02c.33,0,.61-.23.66-.56"/>
      <path class="cls-1" d="m31.53.84c.14-.16.16-.38.05-.57-.1-.18-.31-.28-.51-.24-.21.04-.37.2-.4.4"/>
      <path class="cls-1" d="m31.16.83c.17,0,.3-.14.31-.3,0-.17-.12-.31-.28-.33s-.32.09-.34.26"/>
      <path class="cls-1" d="m30.16.84c.24,0,.45-.17.49-.41"/>
      <path class="cls-1" d="m30.16,1.02c.33,0,.61-.23.66-.56"/>
    </g>
  </g>
</svg>

<?xml version="1.0" encoding="UTF-8" standalone="no"?>
<svg
   id="Capa_2"
   data-name="Capa 2"
   viewBox="0 0 20.5 1.6792723"
   version="1.1"
   sodipodi:docname="matrix9_q.svg"
   width="20.5"
   height="1.6792723"
   inkscape:version="1.3.2 (091e20e, 2023-11-25, custom)"
   xmlns:inkscape="http://www.inkscape.org/namespaces/inkscape"
   xmlns:sodipodi="http://sodipodi.sourceforge.net/DTD/sodipodi-0.dtd"
   xmlns="http://www.w3.org/2000/svg"
   xmlns:svg="http://www.w3.org/2000/svg">
  <sodipodi:namedview
     id="namedview47"
     pagecolor="#ffffff"
     bordercolor="#000000"
     borderopacity="0.25"
     inkscape:showpageshadow="2"
     inkscape:pageopacity="0.0"
     inkscape:pagecheckerboard="0"
     inkscape:deskcolor="#d1d1d1"
     showgrid="false"
     inkscape:zoom="52.877419"
     inkscape:cx="19.375"
     inkscape:cy="0.84156906"
     inkscape:window-width="2560"
     inkscape:window-height="1369"
     inkscape:window-x="-8"
     inkscape:window-y="-8"
     inkscape:window-maximized="1"
     inkscape:current-layer="Capa_2" />
  <defs
     id="defs1">
    <style
       id="style1">
      .cls-1 {
        fill: none;
        stroke: #000;
        stroke-linecap: round;
        stroke-linejoin: round;
        stroke-width: .05px;
      }
    </style>
  </defs>
  <g
     id="Capa_1-2"
     data-name="Capa 1"
     transform="translate(-0.005,0.00427231)">
    <g
       id="g47">
      <polyline
         class="cls-1"
         points="19.55 .93 19.55 1.05 19.58 1.08 19.61 1.08 20.45 1.08 20.48 1.08 20.48 1.1 20.48 1.13 20.48 1.32 20.48 1.35 20.48 1.38 20.45 1.41 20.42 1.44 20.39 1.44 20.36 1.44"
         id="polyline1" />
      <polyline
         class="cls-1"
         points="19.25 .81 19.25 .9 19.25 .93 19.41 1.22 19.44 1.22 19.44 1.25 19.47 1.25 20.25 1.25 20.25 1.32 20.28 1.35 20.28 1.38 20.28 1.41 20.3 1.41 20.3 1.44 20.33 1.44 20.36 1.44"
         id="polyline2" />
      <polyline
         class="cls-1"
         points="18.05 1.05 17.06 1.05 17.03 1.05 17.03 1.02 17.03 .87"
         id="polyline3" />
      <polyline
         class="cls-1"
         points="16.01 1.05 15.03 1.05 15 1.05 15 1.02 15 .87"
         id="polyline4" />
      <polyline
         class="cls-1"
         points="13.97 1.05 13.01 1.05 12.98 1.05 12.95 1.05 12.95 1.02 12.95 .87"
         id="polyline5" />
      <polyline
         class="cls-1"
         points="11.97 1.05 10.7 1.05 10.67 1.05 10.67 1.08 10.64 1.08 10.64 1.1 10.64 1.28 10.64 1.32 10.64 1.35 10.67 1.35 10.7 1.35 10.85 1.35 10.88 1.35 10.91 1.38 10.91 1.41 10.91 1.59 10.91 1.62 10.88 1.65 10.85 1.65 10.19 1.65 10.16 1.65 10.13 1.62 10.13 1.59 10.13 1.41 10.13 1.38 10.16 1.35 10.19 1.35 10.41 1.35 10.44 1.35 10.47 1.35 10.47 1.32 10.47 1.28 10.47 1.1 10.47 1.08 10.44 1.08 10.44 1.05 10.41 1.05 2.75 1.05 2.54 1.05 2.51 1.08 2.51 1.1 2.48 1.1 2.48 1.59 2.48 1.62 2.48 1.65 2.45 1.65 2.33 1.65 .05 1.65 .03 1.65 .03 1.62 .03 1.59 .03 1.53 .03 1.5 .03 1.47 .05 1.47 .23 1.47 .56 1.47 .59 1.5 .59 1.47 2.28 1.47 2.3 1.47 2.3 1.44 2.33 1.44 2.33 1.41 2.33 1.1 2.3 1.08 2.28 1.05 1.44 1.05 1.41 1.05 1.41 1.02 1.41 .93 1.41 .9 1.44 .9 1.44 .87 1.82 .87 11.3 .87 11.97 .87"
         id="polyline6" />
      <line
         class="cls-1"
         x1="13.34"
         y1="0.87"
         x2="13.97"
         y2="0.87"
         id="line6" />
      <line
         class="cls-1"
         x1="15.38"
         y1="0.87"
         x2="16.01"
         y2="0.87"
         id="line7" />
      <line
         class="cls-1"
         x1="17.389999"
         y1="0.87"
         x2="18.049999"
         y2="0.87"
         id="line8" />
      <path
         class="cls-1"
         d="m 19.41,0.84 c 0.14,-0.16 0.16,-0.38 0.05,-0.57 -0.11,-0.19 -0.31,-0.28 -0.51,-0.24 -0.21,0.04 -0.37,0.2 -0.4,0.4"
         id="path8" />
      <path
         class="cls-1"
         d="M 19.23,0.76 C 19.34,0.67 19.38,0.52 19.32,0.39 19.27,0.26 19.13,0.18 18.99,0.2 18.85,0.22 18.74,0.32 18.71,0.46"
         id="path9" />
      <path
         class="cls-1"
         d="m 18.04,0.84 c 0.24,0 0.45,-0.17 0.49,-0.41"
         id="path10" />
      <path
         class="cls-1"
         d="m 18.04,1.02 c 0.33,0 0.61,-0.23 0.66,-0.56"
         id="path11" />
      <path
         class="cls-1"
         d="m 19.53,0.91 c 0,0 -0.02,-0.04 -0.05,-0.04"
         id="path12" />
      <line
         class="cls-1"
         x1="19.440001"
         y1="0.87"
         x2="19.5"
         y2="0.87"
         id="line12" />
      <path
         class="cls-1"
         d="m 17.37,0.84 c 0.14,-0.16 0.16,-0.38 0.05,-0.57 -0.1,-0.18 -0.31,-0.28 -0.51,-0.24 -0.21,0.04 -0.37,0.2 -0.4,0.4"
         id="path13" />
      <path
         class="cls-1"
         d="m 17,0.83 c 0.17,0 0.3,-0.14 0.31,-0.3 C 17.32,0.37 17.19,0.22 17.03,0.2 16.87,0.18 16.71,0.29 16.69,0.46"
         id="path14" />
      <path
         class="cls-1"
         d="m 16,0.84 c 0.24,0 0.45,-0.17 0.49,-0.41"
         id="path15" />
      <path
         class="cls-1"
         d="m 16,1.02 c 0.33,0 0.61,-0.23 0.66,-0.56"
         id="path16" />
      <path
         class="cls-1"
         d="M 15.36,0.84 C 15.5,0.68 15.52,0.46 15.41,0.27 15.3,0.08 15.1,-0.01 14.9,0.03 c -0.21,0.04 -0.37,0.2 -0.4,0.4"
         id="path17" />
      <path
         class="cls-1"
         d="m 14.99,0.83 c 0.17,0 0.3,-0.14 0.31,-0.3 C 15.31,0.37 15.18,0.22 15.02,0.2 14.86,0.18 14.7,0.29 14.68,0.46"
         id="path18" />
      <path
         class="cls-1"
         d="m 13.96,0.84 c 0.24,0 0.45,-0.17 0.49,-0.41"
         id="path19" />
      <path
         class="cls-1"
         d="m 13.96,1.02 c 0.33,0 0.61,-0.23 0.66,-0.56"
         id="path20" />
      <path
         class="cls-1"
         d="m 13.32,0.84 c 0.14,-0.16 0.16,-0.38 0.05,-0.57 -0.11,-0.19 -0.31,-0.28 -0.51,-0.24 -0.21,0.04 -0.37,0.2 -0.4,0.4"
         id="path21" />
      <path
         class="cls-1"
         d="m 12.95,0.83 c 0.17,0 0.3,-0.14 0.31,-0.3 0,-0.17 -0.12,-0.31 -0.28,-0.33 -0.16,-0.02 -0.32,0.09 -0.34,0.26"
         id="path22" />
      <path
         class="cls-1"
         d="m 11.95,0.84 c 0.24,0 0.45,-0.17 0.49,-0.41"
         id="path23" />
      <path
         class="cls-1"
         d="m 11.95,1.02 c 0.33,0 0.61,-0.23 0.66,-0.56"
         id="path24" />
    </g>
  </g>
</svg>
